!! 00000] TT[WS
!!!OTL: Ma mepuo
!!!ARE: Asia, China,ÿShanxi Yuncheng
!! Ethnic Group: Han
!! WI, 86
!!!SCT: J0103
!!!YEM: Copyright 1995, estate of Helmut Schaffrath.
**kern
*ICvox
*Ivox
*M2/4
*k[b-]
*F:
{8cc
4ff
8cc
=1
4b-
8a
8g
=2
8.f
16e-
8d
8f
=3
2g}
=4
{8g
8cc
8d
8c
=5
8f
8g
4cc
=6
8f
16d
16c
8B-
8G
=7
2c}
=8
{8.f
16g
8d
8c
=9
8f
8g
4c
=10
8r
8cc
8b-
8cc
=11
4ff
8cc
8ff}
=12
{4b-
8a
8a
=13
8g
8f
8e-
8d
=14
4.c
8g
=15
8f
8g
16f
16g
16e-
16d
=16
2c}
==
!!!AGN: Xiaodiao. Qingge, Aisu
!!!ONB: ESAC (Essen Associative Code) Database: CHINA
!!!AMT: simple duple
!!!AIN: vox
!!!EED: Helmut Schaffrath
!!!EEV: 1.0
*-
